!!!SOCIAL_FUNCTION:	songs received from animals
!!!PDT:	1918

Specific Region: Dakotas, Minnesota, Montana, Nebraska
!!!REG: Dakotas and Montana
!!!LING_GROUP: Siouan
!!!LANG: Tone
!!!OTL@ENG: An Eagle Nation Is Coming
!!!ONM: No. 55
**kern
*Imale
*clefG2
*k[b-]
*M3/4
*>[A,A1,A,A2]
*>norep[A,A2]
*>A
=!|:
*MM132
4f
=1
4g
4f
4f
=2
4.f
8c
4f
=3
16a
8.f
8c
8c
4c
=4
4c
8B-
8B-
4c
=5
4f
8c
8c
4c
=6
*clefF4
4c
8A
8A
4c
=7||
*M2/4
*MM144
8f
8c
8c
8A
=8
8f
8A
8A
8G
=9
4G
8G
8F
=10
4F
[4F
=11
4F]
4c
=12||
*M3/4
*MM132
4f
12f
12c
12c
4c
=13
4c
8A
8A
4c
=14||
*M2/4
*MM144
8f
8c
8c
8A
=15
8f
8A
8A
8G
=16
4.G
8F
=17
4.G
8F
=18
4F
[4F
=19
4F]
4F
=20
4G
12G
12F
12F
=21
*MM132
4F
16G
8.F
=22
8C
8C
[4C
=23
4C]
16D
8.C
=24||
*M3/4
8AA
8AA
2AA
=25||
*M2/4
8c
8A
8A
8G
=26
4.G
8F
=27
4F
4F
=28
4F
4c
=29
4f
(8f
8c)
=30
8c
[8c
4c]
=31
4c
8c
16A
16A
=32
8A
[8c
4c]
=33
*MM144
(8f
8c)
(8c
8A)
=34
(8f
8A)
(8A
8G)
=35
4G
8G
8F
=36
4G
(8G
8F)
=37
4F
[4F
=38
4F]
4F
=39
*MM132
4G
12G
12F
12F
=40
4F
16G
8.F
=41
8C
8C
[4C
=42
4C]
8D
8C
*>A1
=43
!! ending 1
8AA
8AA
4AA
=||
*M3/4
4FF
4r
*>A2
=:|!
!! ending 2
4AA
8BB-
8AA
=44
2FF
==
*-
!!!CNT: Native American -- Sioux
!!!MRD: 1911/07//-1914///
!!!OCL: Frances Densmore
!!!YOR1: Teton Sioux Music, Bulletin 61,
!!!YOR2: Bureau of American Ethnology, Smithsonian Institution
!!!PPR: Government Printing Office
!!!PPP: Washington, D.C.
!!!PDT: 1918///
!!!ENC: Craig Stuart Sapp
!!!END: 2002/03/25/
!!!EEV: 2002/03/31/
!!!AGN: Song of Personal Dreams/Song Received from Animals
!!!MPN@@SIO: Shiya'ka
!!!MPN@ENG: Teal Duck
!!!TXO: Teton Sioux
!!!MLC: Standing Rock Reservation, South Dakota, United States of America
!!!ARL: 45.9/-100.7#
!!!catalog: Catalogue No. 472
!!!PPG: 193
!!!EFL: 55/245
!! ending 1
!! ending 2
!!!VTS: 2950745052
